X: 1
T: Jenny Dang The Weaver
R: reel
M: 4/4
L: 1/8
K: Dmaj
|:dA (3AAA AFAB | dA (3AAA f2ef | dB (3BBB BABd | ABde faef:|
|:d2fd efge | defd e2dB | d2fd efge | aA (3AAA f2ef:|


Tune 380	Setting 23200

